svg/u1f603.svg

<svg viewBox="0 0 128 128" xmlns="http://www.w3.org/2000/svg">
  <g id="gold">
    <radialGradient id="face_1_" cx="63.6" cy="216.9" gradientTransform="matrix(1 0 0 1 0 -154)" gradientUnits="userSpaceOnUse" r="56.9597">
      <stop offset="0.5" stop-color="#FDE030"/>
      <stop offset="0.92" stop-color="#F7C02B"/>
      <stop offset="1" stop-color="#F4A223"/>
    </radialGradient>
    <path id="face" d="M63.6,118.8c-27.9,0-58-17.5-58-55.9S35.7,7,63.6,7c15.5,0,29.8,5.1,40.4,14.4 c11.5,10.2,17.6,24.6,17.6,41.5s-6.1,31.2-17.6,41.4C93.4,113.6,79,118.8,63.6,118.8z" fill="url(#face_1_)"/>
    <path d="M111.49,29.67c5.33,8.6,8.11,18.84,8.11,30.23c0,16.9-6.1,31.2-17.6,41.4 c-10.6,9.3-25,14.5-40.4,14.5c-18.06,0-37-7.35-48.18-22.94c10.76,17.66,31,25.94,50.18,25.94c15.4,0,29.8-5.2,40.4-14.5 c11.5-10.2,17.6-24.5,17.6-41.4C121.6,50.16,118.13,38.84,111.49,29.67z" fill="#EB8F00"/>
  </g>
  <g id="facial_expressions">
    <g id="big-eyes-grinning-face">
      <g id="eyes">
        <path d="M82.65,33.62L82.65,33.62c3.81,0,7.26,5.65,7.26,15s-3.45,15-7.26,15l0,0 c-3.8,0-7.25-5.64-7.25-15S78.85,33.62,82.65,33.62z" fill="#422B0D"/>
        <path d="M45.27,33.62L45.27,33.62c-4.05,0-7.74,5.65-7.74,15s3.69,15,7.74,15l0,0 c4.06,0,7.75-5.64,7.75-15S49.33,33.62,45.27,33.62z" fill="#422B0D"/>
      </g>
    </g>
    <g id="peepers">
      <path d="M45.05,37.29L45.05,37.29c-1.21-0.73-2.78-0.33-3.51,0.88c-0.02,0.04-0.05,0.08-0.07,0.12 c-0.92,1.07-0.81,2.69,0.26,3.61c0.03,0.03,0.06,0.05,0.1,0.08l0,0c1.2,0.73,2.77,0.34,3.5-0.86c0.03-0.05,0.05-0.09,0.08-0.14 c0.92-1.08,0.8-2.7-0.28-3.62C45.1,37.33,45.08,37.31,45.05,37.29z" fill="#896024"/>
    </g>
    <g id="peepers-2">
      <path d="M83.21,37.29L83.21,37.29c-1.22-0.72-2.8-0.32-3.52,0.9c-0.02,0.03-0.04,0.07-0.06,0.1 c-0.91,1.09-0.76,2.7,0.33,3.61c0.01,0.01,0.03,0.02,0.04,0.03l0,0c1.2,0.73,2.77,0.34,3.5-0.86c0.03-0.05,0.05-0.09,0.08-0.14 c0.91-1.09,0.76-2.7-0.33-3.61C83.24,37.31,83.22,37.3,83.21,37.29z" fill="#896024"/>
    </g>
    <path d="M63.49,74.66" fill="#422B0D"/>
    <path d="M63.49,74.66" fill="#422B0D"/>
    <path d="M102.07,71.62c-1.4-2.53-4.44-3.64-7.14-2.62c-10.26,2.99-20.9,4.48-31.59,4.43 C52.65,73.48,42.01,71.99,31.75,69c-2.69-1.02-5.73,0.08-7.13,2.6c-1.36,2.51-0.38,5.42,0.77,7.93 c6.42,14.1,20.57,22.54,37.87,22.59h0.16c17.3,0,31.45-8.49,37.88-22.59C102.44,77,103.43,74.13,102.07,71.62z" fill="#422B0D"/>
    <path d="M63.42,100.89" fill="#422B0D"/>
    <path d="M63.49,74.7" fill="#422B0D"/>
    <path d="M63.49,74.7" fill="#422B0D"/>
    <path d="M63.42,100.89" fill="#422B0D"/>
    <path d="M79.35,98.14c-0.37-0.34-0.75-0.65-1.13-1c-4.08-3.59-9.36-5.52-14.8-5.41 C57.82,91.64,52.37,93.5,48,97c-0.38,0.31-0.78,0.61-1.15,1s-0.57,0.67-0.81,1c5.5,2.15,11.36,3.25,17.27,3.22h0.16 c5.66,0,11.27-1.01,16.57-3C79.84,98.84,79.61,98.48,79.35,98.14z" fill="#ED7770"/>
    <path d="M94.93,69c-10.26,2.99-20.9,4.48-31.59,4.43C52.65,73.48,42.01,71.99,31.75,69 c-2.69-1.02-5.73,0.08-7.13,2.6c-0.2,0.38-0.36,0.78-0.46,1.19c0.33,0.17,0.71,0.34,1.16,0.52c12.04,6.03,25.35,9.09,38.81,8.93 c12.91,0.15,25.67-2.66,37.33-8.2c0.47-0.2,0.86-0.39,1.21-0.57c-0.08-0.65-0.29-1.29-0.6-1.87C100.67,69.08,97.63,67.97,94.93,69z " fill="#FFFFFF"/>
    <path d="M102.11,71.63c-1.42-2.53-4.47-3.65-7.19-2.63c-10.26,2.99-20.9,4.48-31.58,4.43 C52.65,73.48,42.01,71.99,31.75,69c-2.69-1.02-5.73,0.08-7.13,2.6c-1.36,2.51-0.38,5.42,0.77,7.93c0.51,1.13,1.08,2.24,1.71,3.31 c0,0-2.1-7.78-0.28-10.04c0.62-0.96,1.66-1.56,2.8-1.62c0.47,0,0.93,0.08,1.38,0.22c10.44,3.07,21.27,4.62,32.16,4.6h0.35 c10.89,0.02,21.72-1.53,32.16-4.6c0.45-0.14,0.91-0.22,1.38-0.22c1.14,0.06,2.19,0.66,2.81,1.62c1.85,2.26-0.28,10.07-0.28,10.07 c0.62-1.07,1.24-2.17,1.76-3.31C102.48,77.05,103.47,74.15,102.11,71.63z" fill="#EB8F00"/>
  </g>
</svg>

<svg viewBox="0 0 128 128" xmlns="http://www.w3.org/2000/svg">
  <defs>
    <radialGradient id="face_1_" cx="63.6" cy="62.9" gradientUnits="userSpaceOnUse" r="56.9597">
      <stop offset="0.5" stop-color="#FDE030"/>
      <stop offset="0.92" stop-color="#F7C02B"/>
      <stop offset="1" stop-color="#F4A223"/>
    </radialGradient>
  </defs>
  <path id="face" d="M63.6,118.8 C35.7,118.8 5.6,101.3 5.6,62.9 C5.6,24.5 35.7,7 63.6,7 C79.1,7 93.4,12.1 104,21.4 C115.5,31.6 121.6,46 121.6,62.9 C121.6,79.8 115.5,94.1 104,104.3 C93.4,113.6 79,118.8 63.6,118.8 Z" fill="url(#face_1_)"/>
  <path d="M111.49,29.67 C116.82,38.27 119.6,48.51 119.6,59.9 C119.6,76.8 113.5,91.1 102,101.3 C91.4,110.6 77,115.8 61.6,115.8 C43.54,115.8 24.6,108.45 13.42,92.86 C24.18,110.52 44.42,118.8 63.6,118.8 C79,118.8 93.4,113.6 104,104.3 C115.5,94.1 121.6,79.8 121.6,62.9 C121.6,50.16 118.13,38.84 111.49,29.67 Z" fill="#EB8F00"/>
  <path d="M82.65,33.62 L82.65,33.62 C86.46,33.62 89.91,39.27 89.91,48.62 C89.91,57.97 86.46,63.62 82.65,63.62 L82.65,63.62 C78.85,63.62 75.4,57.98 75.4,48.62 C75.4,39.26 78.85,33.62 82.65,33.62 Z" fill="#422B0D"/>
  <path d="M45.27,33.62 L45.27,33.62 C41.22,33.62 37.53,39.27 37.53,48.62 C37.53,57.97 41.22,63.62 45.27,63.62 L45.27,63.62 C49.33,63.62 53.02,57.98 53.02,48.62 C53.02,39.26 49.33,33.62 45.27,33.62 Z" fill="#422B0D"/>
  <path d="M45.05,37.29 L45.05,37.29 C43.84,36.56 42.27,36.96 41.54,38.17 C41.52,38.21 41.49,38.25 41.47,38.29 C40.55,39.36 40.66,40.98 41.73,41.9 C41.76,41.93 41.79,41.95 41.83,41.98 L41.83,41.98 C43.03,42.71 44.6,42.32 45.33,41.12 C45.36,41.07 45.38,41.03 45.41,40.98 C46.33,39.9 46.21,38.28 45.13,37.36 C45.1,37.33 45.08,37.31 45.05,37.29 Z" fill="#896024"/>
  <path d="M83.21,37.29 L83.21,37.29 C81.99,36.57 80.41,36.97 79.69,38.19 C79.67,38.22 79.65,38.26 79.63,38.29 C78.72,39.38 78.87,40.99 79.96,41.9 C79.97,41.91 79.99,41.92 80,41.93 L80,41.93 C81.2,42.66 82.77,42.27 83.5,41.07 C83.53,41.02 83.55,40.98 83.58,40.93 C84.49,39.84 84.34,38.23 83.25,37.32 C83.24,37.31 83.22,37.3 83.21,37.29 Z" fill="#896024"/>
  <path d="M102.07,71.62 C100.67,69.09 97.63,67.98 94.93,69 C84.67,71.99 74.03,73.48 63.34,73.43 C52.65,73.48 42.01,71.99 31.75,69 C29.06,67.98 26.02,69.08 24.62,71.6 C23.26,74.11 24.24,77.02 25.39,79.53 C31.81,93.63 45.96,102.07 63.26,102.12 L63.42,102.12 C80.72,102.12 94.87,93.63 101.3,79.53 C102.44,77 103.43,74.13 102.07,71.62 Z" fill="#422B0D"/>
  <path d="M79.35,98.14 C78.98,97.8 78.6,97.49 78.22,97.14 C74.14,93.55 68.86,91.62 63.42,91.73 C57.82,91.64 52.37,93.5 48,97 C47.62,97.31 47.22,97.61 46.85,98 C46.48,98.39 46.28,98.67 46.04,99 C51.54,101.15 57.4,102.25 63.31,102.22 L63.47,102.22 C69.13,102.22 74.74,101.21 80.04,99.22 C79.84,98.84 79.61,98.48 79.35,98.14 Z" fill="#ED7770"/>
  <path d="M94.93,69 C84.67,71.99 74.03,73.48 63.34,73.43 C52.65,73.48 42.01,71.99 31.75,69 C29.06,67.98 26.02,69.08 24.62,71.6 C24.42,71.98 24.26,72.38 24.16,72.79 C24.49,72.96 24.87,73.13 25.32,73.31 C37.36,79.34 50.67,82.4 64.13,82.24 C77.04,82.39 89.8,79.58 101.46,74.04 C101.93,73.84 102.32,73.65 102.67,73.47 C102.59,72.82 102.38,72.18 102.07,71.6 C100.67,69.08 97.63,67.97 94.93,69 Z" fill="#FFFFFF"/>
  <path d="M102.11,71.63 C100.69,69.1 97.64,67.98 94.92,69 C84.66,71.99 74.02,73.48 63.34,73.43 C52.65,73.48 42.01,71.99 31.75,69 C29.06,67.98 26.02,69.08 24.62,71.6 C23.26,74.11 24.24,77.02 25.39,79.53 C25.9,80.66 26.47,81.77 27.1,82.84 C27.1,82.84 25,75.06 26.82,72.8 C27.44,71.84 28.48,71.24 29.62,71.18 C30.09,71.18 30.55,71.26 31,71.4 C41.44,74.47 52.27,76.02 63.16,76 L63.51,76 C74.4,76.02 85.23,74.47 95.67,71.4 C96.12,71.26 96.58,71.18 97.05,71.18 C98.19,71.24 99.24,71.84 99.86,72.8 C101.71,75.06 99.58,82.87 99.58,82.87 C100.2,81.8 100.82,80.7 101.34,79.56 C102.48,77.05 103.47,74.15 102.11,71.63 Z" fill="#EB8F00"/>
</svg>
